X: 39166
T: Sweets Of May, The
R: jig
M: 6/8
K: Dmajor
|:dfa f2 d|e2 f gfe|dfa f2 d|ecA d3|
dfa f2 d|e2 f gfe|dfa faf|ecA d3:|
efe e2 d|B2 c d3|d2 e f2 e|f2 g a2 d|
efe e2 d|B2 c d3|dfa f/g/af|ecA d3||
d2 A d2 e|f2 f gfe|d2 A d2 f|ecA d3|
d2 A d2 e|fd/e/f gfe|dfa gag|ecA d3||
|:a3 a^ga|A3 A^GA|g3 gfg|A3 AA/B/c|
d2 A d2 e|fdf gg/f/e|d2 A d2 f|ecA d3:|

